X: 11704
T: Éirinn Go Brách
R: jig
M: 6/8
K: Amajor
c/d/cA BAA|aga e3|cAA eAA|Bcd Bed|
cAA eAA|aga e2 d|c/d/ec BAB|1 cAG A:|2 cAG A3||
|:cBc ecA|dcd daa|cBc ecA|dcd B3|
c2 c ecA|dcd daa|c/d/ec BAB|1 cAG A3:|2 cAG A||

